Newaita-dark/apps/48/preferences-desktop-theme.svg

<svg height="48pt" viewBox="0 0 48 48" width="48pt" xmlns="http://www.w3.org/2000/svg" xmlns:xlink="http://www.w3.org/1999/xlink"><linearGradient id="a" gradientUnits="userSpaceOnUse" x1="23.81478" x2="23.81478" y1="42.0509015" y2="44.03546750005"><stop offset="0" stop-opacity=".27451"/><stop offset="1" stop-opacity="0"/></linearGradient><linearGradient id="b"><stop offset="0" stop-opacity=".313726"/><stop offset=".222222" stop-opacity=".27451"/><stop offset="1" stop-opacity="0"/></linearGradient><radialGradient id="c" cx="450.908936" cy="189.579361" gradientTransform="matrix(.00000026 -.117199 -.210958 -.00000015 80.180537 95.392996)" gradientUnits="userSpaceOnUse" r="21.166656" xlink:href="#b"/><radialGradient id="d" cx="450.908936" cy="189.579361" gradientTransform="matrix(-.00000026 .117199 .210958 .00000015 -32.550992 -11.291221)" gradientUnits="userSpaceOnUse" r="21.166656" xlink:href="#b"/><radialGradient id="e" cx="450.908936" cy="189.579361" gradientTransform="matrix(-.00000026 -.117199 .210958 -.00000015 -32.550992 95.392996)" gradientUnits="userSpaceOnUse" r="21.166656" xlink:href="#b"/><radialGradient id="f" cx="450.908936" cy="189.579361" gradientTransform="matrix(.00000026 .117199 -.210958 .00000015 80.180534 -11.291222)" gradientUnits="userSpaceOnUse" r="21.166656" xlink:href="#b"/><linearGradient id="g"><stop offset="0" stop-color="#424242"/><stop offset="1" stop-color="#616161"/></linearGradient><linearGradient id="h" gradientTransform="matrix(.113024 0 0 .326118 -8.78102 50.462022)" gradientUnits="userSpaceOnUse" x1="306.916656" x2="305.954559" xlink:href="#g" y1="-25.791676" y2="-135.329163"/><linearGradient id="i" gradientTransform="matrix(.113024 0 0 .326118 -8.781019 50.462019)" gradientUnits="userSpaceOnUse" x1="306.916656" x2="305.954559" y1="-25.791676" y2="-135.329163"><stop offset="0" stop-color="#bdbdbd"/><stop offset="1" stop-color="#e0e0e0"/></linearGradient><linearGradient id="j" gradientTransform="matrix(.113024 0 0 .326118 -8.781019 50.462019)" gradientUnits="userSpaceOnUse" x1="306.916656" x2="305.954559" xlink:href="#g" y1="-25.791676" y2="-135.329163"/><linearGradient id="k" gradientUnits="userSpaceOnUse" x1="333.37491775" x2="333.37491775" y1="-121.04159691667" y2="-89.29164325"><stop offset="0" stop-color="#66bb6a"/><stop offset="1" stop-color="#81c784"/></linearGradient><linearGradient id="l" gradientUnits="userSpaceOnUse" x1="386.29151025" x2="386.29151025" y1="-121.04167408333" y2="-89.29163575"><stop offset="0" stop-color="#ffd54f"/><stop offset="1" stop-color="#ffe082"/></linearGradient><linearGradient id="m" gradientUnits="userSpaceOnUse" x1="439.208298" x2="439.208298" y1="-121.041682" y2="-89.291686"><stop offset="0" stop-color="#e57373"/><stop offset="1" stop-color="#ef9a9a"/></linearGradient><path d="m6.945312 42.050781h33.738282v1.984375h-33.738282zm0 0" fill="url(#a)"/><path d="m40.683594 42.050781h3.96875v-1.984375h-3.96875zm0 0" fill="url(#c)"/><path d="m6.945312 42.050781h-3.96875v1.984375h3.96875zm0 0" fill="url(#d)"/><path d="m6.945312 42.050781h-3.96875v-1.984375h3.96875zm0 0" fill="url(#e)"/><path d="m40.683594 42.050781h3.96875v1.984375h-3.96875zm0 0" fill="url(#f)"/><path d="m4.960938 6.328125h37.707031c1.097656 0 1.984375.890625 1.984375 1.984375v31.753906c0 1.097656-.886719 1.984375-1.984375 1.984375h-37.707031c-1.09375 0-1.984376-.886719-1.984376-1.984375v-31.753906c0-1.09375.890626-1.984375 1.984376-1.984375zm0 0" fill="url(#h)"/><path d="m23.816406 6.328125v35.722656h18.851563c1.101562 0 1.984375-.886719 1.984375-1.984375v-31.753906c0-1.097656-.882813-1.984375-1.984375-1.984375zm0 0" fill="url(#i)"/><path d="m2.976562 14.265625h41.675782v.992187h-41.675782zm0 0" fill="#0a0d0e" fill-opacity=".235294"/><path d="m4.960938 6.328125c-1.097657 0-1.984376.886719-1.984376 1.984375v5.953125h41.675782v-5.953125c0-1.097656-.882813-1.984375-1.984375-1.984375zm0 0" fill="url(#i)"/><path d="m4.960938 42.070312c-1.097657 0-1.984376-.886718-1.984376-1.984374v-.515626c0 1.097657.886719 1.984376 1.984376 1.984376h37.707031c1.101562 0 1.984375-.886719 1.984375-1.984376v.515626c0 1.097656-.882813 1.984374-1.984375 1.984374zm0 0" fill-opacity=".235294"/><path d="m23.816406 6.328125v7.9375h20.835938v-5.953125c0-1.097656-.882813-1.984375-1.984375-1.984375zm0 0" fill="url(#j)"/><path d="m4.960938 6.441406c-1.097657 0-1.984376.886719-1.984376 1.988282v.515624c0-1.101562.886719-1.984374 1.984376-1.984374h37.707031c1.101562 0 1.984375.882812 1.984375 1.984374v-.515624c0-1.101563-.882813-1.988282-1.984375-1.988282zm0 0" fill="#fff" fill-opacity=".392157"/><path d="m4.960938 6.1875c-1.175782 0-2.125.949219-2.125 2.125v31.753906c0 1.175782.949218 2.125 2.125 2.125h37.707031c1.175781 0 2.125-.949218 2.125-2.125v-31.753906c0-1.175781-.949219-2.125-2.125-2.125zm0 .28125h37.707031c1.023437 0 1.84375.820312 1.84375 1.84375v31.753906c0 1.023438-.820313 1.84375-1.84375 1.84375h-37.707031c-1.023438 0-1.84375-.820312-1.84375-1.84375v-31.753906c0-1.023438.820312-1.84375 1.84375-1.84375zm0 0" fill="#212121"/><g stroke-width="3"><path d="m333.38483-121.050638c8.749165 0 15.873484 7.124319 15.873484 15.873484 0 8.790827-7.124319 15.873484-15.873484 15.873484-8.790827 0-15.873484-7.082657-15.873484-15.873484 0-8.749165 7.082657-15.873484 15.873484-15.873484zm0 0" fill="url(#k)" stroke="#212121" stroke-linecap="round" transform="matrix(.093759 0 0 .093759 0 20.158175)"/><path d="m386.296444-121.050638c8.749164 0 15.873484 7.124319 15.873484 15.873484 0 8.790827-7.12432 15.873484-15.873484 15.873484-8.790827 0-15.873484-7.082657-15.873484-15.873484 0-8.749165 7.082657-15.873484 15.873484-15.873484zm0 0" fill="url(#l)" stroke="#212121" stroke-linecap="round" transform="matrix(.093759 0 0 .093759 0 20.158175)"/><path d="m439.208058-121.050638c8.749164 0 15.873484 7.124319 15.873484 15.873484 0 8.790827-7.12432 15.873484-15.873484 15.873484-8.749165 0-15.873484-7.082657-15.873484-15.873484 0-8.749165 7.124319-15.873484 15.873484-15.873484zm0 0" fill="url(#m)" stroke="#212121" stroke-linecap="round" transform="matrix(.093759 0 0 .093759 0 20.158175)"/></g><path d="m4.960938 6.441406c-1.097657 0-1.984376.886719-1.984376 1.988282v.515624c0-1.101562.886719-1.984374 1.984376-1.984374h18.855468v-.519532zm0 0" fill="#fff"/><path d="m254.017409 233.498837v-381.005282" fill="none" stroke="#212121" stroke-width="3" transform="matrix(.093759 0 0 .093759 0 20.158175)"/><path d="m31.746968-62.847863h444.499219" fill="none" stroke="#212121" stroke-width="3" transform="matrix(.093759 0 0 .093759 0 20.158175)"/></svg>

<?xml version="1.0" encoding="UTF-8"?>
<svg xmlns="http://www.w3.org/2000/svg" xmlns:xlink="http://www.w3.org/1999/xlink" width="48pt" height="48pt" viewBox="0 0 48 48" version="1.1">
<defs>
<linearGradient id="linear0" gradientUnits="userSpaceOnUse" x1="254" y1="233.5" x2="254" y2="254.666672" gradientTransform="matrix(0.093759,0,0,0.093759,-0.00000572259,20.158175)">
<stop offset="0" style="stop-color:rgb(0%,0%,0%);stop-opacity:0.27451;"/>
<stop offset="1" style="stop-color:rgb(0%,0%,0%);stop-opacity:0;"/>
</linearGradient>
<radialGradient id="radial0" gradientUnits="userSpaceOnUse" cx="450.908936" cy="189.579361" fx="450.908936" fy="189.579361" r="21.166656" gradientTransform="matrix(0.000000261256,-0.117199,-0.210958,-0.000000152308,80.180537,95.392996)">
<stop offset="0" style="stop-color:rgb(0%,0%,0%);stop-opacity:0.313726;"/>
<stop offset="0.222222" style="stop-color:rgb(0%,0%,0%);stop-opacity:0.27451;"/>
<stop offset="1" style="stop-color:rgb(0%,0%,0%);stop-opacity:0;"/>
</radialGradient>
<radialGradient id="radial1" gradientUnits="userSpaceOnUse" cx="450.908936" cy="189.579361" fx="450.908936" fy="189.579361" r="21.166656" gradientTransform="matrix(-0.000000261256,0.117199,0.210958,0.000000152308,-32.550992,-11.291221)">
<stop offset="0" style="stop-color:rgb(0%,0%,0%);stop-opacity:0.313726;"/>
<stop offset="0.222222" style="stop-color:rgb(0%,0%,0%);stop-opacity:0.27451;"/>
<stop offset="1" style="stop-color:rgb(0%,0%,0%);stop-opacity:0;"/>
</radialGradient>
<radialGradient id="radial2" gradientUnits="userSpaceOnUse" cx="450.908936" cy="189.579361" fx="450.908936" fy="189.579361" r="21.166656" gradientTransform="matrix(-0.000000261256,-0.117199,0.210958,-0.000000152308,-32.550992,95.392996)">
<stop offset="0" style="stop-color:rgb(0%,0%,0%);stop-opacity:0.313726;"/>
<stop offset="0.222222" style="stop-color:rgb(0%,0%,0%);stop-opacity:0.27451;"/>
<stop offset="1" style="stop-color:rgb(0%,0%,0%);stop-opacity:0;"/>
</radialGradient>
<radialGradient id="radial3" gradientUnits="userSpaceOnUse" cx="450.908936" cy="189.579361" fx="450.908936" fy="189.579361" r="21.166656" gradientTransform="matrix(0.000000261256,0.117199,-0.210958,0.000000152308,80.180534,-11.291222)">
<stop offset="0" style="stop-color:rgb(0%,0%,0%);stop-opacity:0.313726;"/>
<stop offset="0.222222" style="stop-color:rgb(0%,0%,0%);stop-opacity:0.27451;"/>
<stop offset="1" style="stop-color:rgb(0%,0%,0%);stop-opacity:0;"/>
</radialGradient>
<linearGradient id="linear1" gradientUnits="userSpaceOnUse" x1="306.916656" y1="-25.791676" x2="305.954559" y2="-135.329163" gradientTransform="matrix(0.113024,0,0,0.326118,-8.78102,50.462022)">
<stop offset="0" style="stop-color:rgb(25.882354%,25.882354%,25.882354%);stop-opacity:1;"/>
<stop offset="1" style="stop-color:rgb(38.039216%,38.039216%,38.039216%);stop-opacity:1;"/>
</linearGradient>
<linearGradient id="linear2" gradientUnits="userSpaceOnUse" x1="306.916656" y1="-25.791676" x2="305.954559" y2="-135.329163" gradientTransform="matrix(0.113024,0,0,0.326118,-8.781019,50.462019)">
<stop offset="0" style="stop-color:rgb(74.117649%,74.117649%,74.117649%);stop-opacity:1;"/>
<stop offset="1" style="stop-color:rgb(87.843138%,87.843138%,87.843138%);stop-opacity:1;"/>
</linearGradient>
<linearGradient id="linear3" gradientUnits="userSpaceOnUse" x1="306.916656" y1="-25.791676" x2="305.954559" y2="-135.329163" gradientTransform="matrix(0.113024,0,0,0.326118,-8.781019,50.462019)">
<stop offset="0" style="stop-color:rgb(74.117649%,74.117649%,74.117649%);stop-opacity:1;"/>
<stop offset="1" style="stop-color:rgb(87.843138%,87.843138%,87.843138%);stop-opacity:1;"/>
</linearGradient>
<linearGradient id="linear4" gradientUnits="userSpaceOnUse" x1="306.916656" y1="-25.791676" x2="305.954559" y2="-135.329163" gradientTransform="matrix(0.113024,0,0,0.326118,-8.781019,50.462019)">
<stop offset="0" style="stop-color:rgb(25.882354%,25.882354%,25.882354%);stop-opacity:1;"/>
<stop offset="1" style="stop-color:rgb(38.039216%,38.039216%,38.039216%);stop-opacity:1;"/>
</linearGradient>
<linearGradient id="linear5" gradientUnits="userSpaceOnUse" x1="349.25" y1="-158.083328" x2="349.25" y2="-115.75" gradientTransform="matrix(0.749999,0,0,0.749999,71.437767,-2.479259)">
<stop offset="0" style="stop-color:rgb(40.000001%,73.333335%,41.568628%);stop-opacity:1;"/>
<stop offset="1" style="stop-color:rgb(50.588238%,78.039217%,51.764709%);stop-opacity:1;"/>
</linearGradient>
<linearGradient id="linear6" gradientUnits="userSpaceOnUse" x1="349.25" y1="-158.083328" x2="349.25" y2="-115.75" gradientTransform="matrix(0.750001,0,0,0.750001,124.353661,-2.47902)">
<stop offset="0" style="stop-color:rgb(100%,83.529413%,30.980393%);stop-opacity:1;"/>
<stop offset="1" style="stop-color:rgb(100%,87.843138%,50.980395%);stop-opacity:1;"/>
</linearGradient>
<linearGradient id="linear7" gradientUnits="userSpaceOnUse" x1="349.25" y1="-158.083328" x2="349.25" y2="-115.75" gradientTransform="matrix(0.75,0,0,0.75,177.270798,-2.479186)">
<stop offset="0" style="stop-color:rgb(89.803922%,45.09804%,45.09804%);stop-opacity:1;"/>
<stop offset="1" style="stop-color:rgb(93.725491%,60.392159%,60.392159%);stop-opacity:1;"/>
</linearGradient>
</defs>
<g id="surface1">
<path style=" stroke:none;fill-rule:nonzero;fill:url(#linear0);" d="M 6.945312 42.050781 L 40.683594 42.050781 L 40.683594 44.035156 L 6.945312 44.035156 Z M 6.945312 42.050781 "/>
<path style=" stroke:none;fill-rule:nonzero;fill:url(#radial0);" d="M 40.683594 42.050781 L 44.652344 42.050781 L 44.652344 40.066406 L 40.683594 40.066406 Z M 40.683594 42.050781 "/>
<path style=" stroke:none;fill-rule:nonzero;fill:url(#radial1);" d="M 6.945312 42.050781 L 2.976562 42.050781 L 2.976562 44.035156 L 6.945312 44.035156 Z M 6.945312 42.050781 "/>
<path style=" stroke:none;fill-rule:nonzero;fill:url(#radial2);" d="M 6.945312 42.050781 L 2.976562 42.050781 L 2.976562 40.066406 L 6.945312 40.066406 Z M 6.945312 42.050781 "/>
<path style=" stroke:none;fill-rule:nonzero;fill:url(#radial3);" d="M 40.683594 42.050781 L 44.652344 42.050781 L 44.652344 44.035156 L 40.683594 44.035156 Z M 40.683594 42.050781 "/>
<path style=" stroke:none;fill-rule:nonzero;fill:url(#linear1);" d="M 4.960938 6.328125 L 42.667969 6.328125 C 43.765625 6.328125 44.652344 7.21875 44.652344 8.3125 L 44.652344 40.066406 C 44.652344 41.164062 43.765625 42.050781 42.667969 42.050781 L 4.960938 42.050781 C 3.867188 42.050781 2.976562 41.164062 2.976562 40.066406 L 2.976562 8.3125 C 2.976562 7.21875 3.867188 6.328125 4.960938 6.328125 Z M 4.960938 6.328125 "/>
<path style=" stroke:none;fill-rule:nonzero;fill:url(#linear2);" d="M 23.816406 6.328125 L 23.816406 42.050781 L 42.667969 42.050781 C 43.769531 42.050781 44.652344 41.164062 44.652344 40.066406 L 44.652344 8.3125 C 44.652344 7.214844 43.769531 6.328125 42.667969 6.328125 Z M 23.816406 6.328125 "/>
<path style=" stroke:none;fill-rule:nonzero;fill:rgb(3.921569%,5.098039%,5.490196%);fill-opacity:0.235294;" d="M 2.976562 14.265625 L 44.652344 14.265625 L 44.652344 15.257812 L 2.976562 15.257812 Z M 2.976562 14.265625 "/>
<path style=" stroke:none;fill-rule:nonzero;fill:url(#linear3);" d="M 4.960938 6.328125 C 3.863281 6.328125 2.976562 7.214844 2.976562 8.3125 L 2.976562 14.265625 L 44.652344 14.265625 L 44.652344 8.3125 C 44.652344 7.214844 43.769531 6.328125 42.667969 6.328125 Z M 4.960938 6.328125 "/>
<path style=" stroke:none;fill-rule:nonzero;fill:rgb(0%,0%,0%);fill-opacity:0.235294;" d="M 4.960938 42.070312 C 3.863281 42.070312 2.976562 41.183594 2.976562 40.085938 L 2.976562 39.570312 C 2.976562 40.667969 3.863281 41.554688 4.960938 41.554688 L 42.667969 41.554688 C 43.769531 41.554688 44.652344 40.667969 44.652344 39.570312 L 44.652344 40.085938 C 44.652344 41.183594 43.769531 42.070312 42.667969 42.070312 Z M 4.960938 42.070312 "/>
<path style=" stroke:none;fill-rule:nonzero;fill:url(#linear4);" d="M 23.816406 6.328125 L 23.816406 14.265625 L 44.652344 14.265625 L 44.652344 8.3125 C 44.652344 7.214844 43.769531 6.328125 42.667969 6.328125 Z M 23.816406 6.328125 "/>
<path style=" stroke:none;fill-rule:nonzero;fill:rgb(100%,100%,100%);fill-opacity:0.392157;" d="M 4.960938 6.441406 C 3.863281 6.441406 2.976562 7.328125 2.976562 8.429688 L 2.976562 8.945312 C 2.976562 7.84375 3.863281 6.960938 4.960938 6.960938 L 42.667969 6.960938 C 43.769531 6.960938 44.652344 7.84375 44.652344 8.945312 L 44.652344 8.429688 C 44.652344 7.328125 43.769531 6.441406 42.667969 6.441406 Z M 4.960938 6.441406 "/>
<path style=" stroke:none;fill-rule:nonzero;fill:rgb(12.941177%,12.941177%,12.941177%);fill-opacity:1;" d="M 4.960938 6.1875 C 3.785156 6.1875 2.835938 7.136719 2.835938 8.3125 L 2.835938 40.066406 C 2.835938 41.242188 3.785156 42.191406 4.960938 42.191406 L 42.667969 42.191406 C 43.84375 42.191406 44.792969 41.242188 44.792969 40.066406 L 44.792969 8.3125 C 44.792969 7.136719 43.84375 6.1875 42.667969 6.1875 Z M 4.960938 6.46875 L 42.667969 6.46875 C 43.691406 6.46875 44.511719 7.289062 44.511719 8.3125 L 44.511719 40.066406 C 44.511719 41.089844 43.691406 41.910156 42.667969 41.910156 L 4.960938 41.910156 C 3.9375 41.910156 3.117188 41.089844 3.117188 40.066406 L 3.117188 8.3125 C 3.117188 7.289062 3.9375 6.46875 4.960938 6.46875 Z M 4.960938 6.46875 "/>
<path style="fill-rule:nonzero;fill:url(#linear5);stroke-width:3;stroke-linecap:round;stroke-linejoin:miter;stroke:rgb(12.941177%,12.941177%,12.941177%);stroke-opacity:1;stroke-miterlimit:4;" d="M 333.38483 -121.050638 C 342.133995 -121.050638 349.258314 -113.926319 349.258314 -105.177154 C 349.258314 -96.386327 342.133995 -89.30367 333.38483 -89.30367 C 324.594003 -89.30367 317.511346 -96.386327 317.511346 -105.177154 C 317.511346 -113.926319 324.594003 -121.050638 333.38483 -121.050638 Z M 333.38483 -121.050638 " transform="matrix(0.093759,0,0,0.093759,0,20.158175)"/>
<path style="fill-rule:nonzero;fill:url(#linear6);stroke-width:3;stroke-linecap:round;stroke-linejoin:miter;stroke:rgb(12.941177%,12.941177%,12.941177%);stroke-opacity:1;stroke-miterlimit:4;" d="M 386.296444 -121.050638 C 395.045608 -121.050638 402.169928 -113.926319 402.169928 -105.177154 C 402.169928 -96.386327 395.045608 -89.30367 386.296444 -89.30367 C 377.505617 -89.30367 370.42296 -96.386327 370.42296 -105.177154 C 370.42296 -113.926319 377.505617 -121.050638 386.296444 -121.050638 Z M 386.296444 -121.050638 " transform="matrix(0.093759,0,0,0.093759,0,20.158175)"/>
<path style="fill-rule:nonzero;fill:url(#linear7);stroke-width:3;stroke-linecap:round;stroke-linejoin:miter;stroke:rgb(12.941177%,12.941177%,12.941177%);stroke-opacity:1;stroke-miterlimit:4;" d="M 439.208058 -121.050638 C 447.957222 -121.050638 455.081542 -113.926319 455.081542 -105.177154 C 455.081542 -96.386327 447.957222 -89.30367 439.208058 -89.30367 C 430.458893 -89.30367 423.334574 -96.386327 423.334574 -105.177154 C 423.334574 -113.926319 430.458893 -121.050638 439.208058 -121.050638 Z M 439.208058 -121.050638 " transform="matrix(0.093759,0,0,0.093759,0,20.158175)"/>
<path style=" stroke:none;fill-rule:nonzero;fill:rgb(100%,100%,100%);fill-opacity:1;" d="M 4.960938 6.441406 C 3.863281 6.441406 2.976562 7.328125 2.976562 8.429688 L 2.976562 8.945312 C 2.976562 7.84375 3.863281 6.960938 4.960938 6.960938 L 23.816406 6.960938 L 23.816406 6.441406 Z M 4.960938 6.441406 "/>
<path style="fill:none;stroke-width:3;stroke-linecap:butt;stroke-linejoin:miter;stroke:rgb(12.941177%,12.941177%,12.941177%);stroke-opacity:1;stroke-miterlimit:4;" d="M 254.017409 233.498837 L 254.017409 -147.506445 " transform="matrix(0.093759,0,0,0.093759,0,20.158175)"/>
<path style="fill:none;stroke-width:3;stroke-linecap:butt;stroke-linejoin:miter;stroke:rgb(12.941177%,12.941177%,12.941177%);stroke-opacity:1;stroke-miterlimit:4;" d="M 31.746968 -62.847863 L 476.246187 -62.847863 " transform="matrix(0.093759,0,0,0.093759,0,20.158175)"/>
</g>
</svg>
